X:35
T:Paddy Hughes' Jig
M:6/8
L:1/8
K:G
A3 AGA|BGE G3|ABA GBd|e3 edB|\
A3 AGA|BGE G2 D|GBA G2 B|dBG BdB|
A3 AGA BGE G{A}G{F}G| ABA GBd|e/f/gd edB|\
ABA AGA|BGE G2 D|GBA G2 B|dBG B/c/dB ||
GBd g3|gba g3|GBd g2 d|e2 d edB|\
GBd gfg|gba g3|a3 agb|age edB|
GBd g{a}g{f}g| gba g3|GBd g2 d|egd edB|\
GBd gfg|gba g{a}g{f}g| abg age|egd edB |>|
